X:1
T:Title
%%score 1 2
L:1/8
Q:1/4=185
M:6/4
K:F
V:1 treble nm="Grand Piano, Unnamed-000"
V:2 bass nm="Choir Pad, Unnamed-001"
V:1
 [FA]4 [FB]2 [FA]4 [EG]2 | [DF]4 D2 D6 | [A,C]4 [CF]2 [CF]4 [FA]2 | [FA]6 [EG]6 | %4
w: By~William~H.~Doane,~1869 * * *||||
 [FA]4 [FB]2 [FA]4 [EG]2 | [DF]4 D2 [B,D]6 | [A,C]4 [CF]2 [CF]4 [CE]2 | [EG]6 F6 | %8
w: ||||
 [FA]4 [Fc]2 [Fc]6 | [FB]4 [Fd]2 [Fd]6 | [Fc]4 [Fd]2 [Fc]4 [FA]2 | [FA]6 [EG]6 | %12
w: ||||
 [CA]4 [DB]2 [CA]4 [^CG]2 | [DF]4 D2 [B,D]6 | [A,C]4 [CF]2 [CF]4 [CE]2 | [EG]6 F6- | F6 z6 |] %17
w: |||||
V:2
 [F,C]4 [F,D]2 [F,C]4 [C,B,]2 | [D,A,]4 [B,,B,]2 [B,,B,]6 | [F,A,]4 [F,A,]2 [F,A,]4 [F,C]2 | %3
 [C,C]6 [C,C]6 | [F,C]4 [F,D]2 [F,C]4 [C,B,]2 | [D,A,]4 [B,,B,]2 [B,,F,]6 | %6
 [C,F,]4 [C,A,]2 [C,A,]4 [C,G,]2 | [C,B,]6 [F,A,]6 | [F,C]4 [F,A,]2 [F,A,]6 | [B,D]4 B,2 B,6 | %10
 [F,A,]4 [F,B,]2 [F,A,]4 [F,C]2 | [C,C]6 [C,C]6 | [F,A,]4 [F,G,]2 [F,A,]4 [E,A,]2 | %13
 [D,A,]4 [B,,B,]2 [B,,F,]6 | [C,F,]4 [C,A,]2 [C,A,]4 [C,G,]2 | [C,B,]6 [F,A,]6- | [F,A,]6 z6 |] %17

